svg/hand_back_left.svg

<svg xmlns="http://www.w3.org/2000/svg" viewBox="0 0 24 24"><path d="M3 16V5.75a1.25 1.25 0 0 1 2.5 0V12h1V2.75a1.25 1.25 0 0 1 2.5 0V12h1V1.25a1.25 1.25 0 0 1 2.5 0V12h1V3.25a1.25 1.25 0 0 1 2.5 0V15h.75l1.41-3.53c.22-.55.68-.97 1.24-1.16l.79-.26a1 1 0 0 1 1.24 1.32L18.4 19c-1.21 3-4.14 5-7.4 5-4.42 0-8-3.58-8-8"/></svg>

<svg xmlns="http://www.w3.org/2000/svg" id="mdi-hand-back-left" viewBox="0 0 24 24"><path d="M3 16V5.75C3 5.06 3.56 4.5 4.25 4.5S5.5 5.06 5.5 5.75V12H6.5V2.75C6.5 2.06 7.06 1.5 7.75 1.5C8.44 1.5 9 2.06 9 2.75V12H10V1.25C10 .56 10.56 0 11.25 0S12.5 .56 12.5 1.25V12H13.5V3.25C13.5 2.56 14.06 2 14.75 2S16 2.56 16 3.25V15H16.75L18.16 11.47C18.38 10.92 18.84 10.5 19.4 10.31L20.19 10.05C21 9.79 21.74 10.58 21.43 11.37L18.4 19C17.19 22 14.26 24 11 24C6.58 24 3 20.42 3 16Z" /></svg>
